public/favicon.svg

<svg xmlns="http://www.w3.org/2000/svg" version="1.1" height="16" width="16" viewBox="0 0 16 16"><defs><pattern id="perforation" width=".94" height="2.9" viewBox="0 0 .94 2.5" patternUnits="userSpaceOnUse"><path d="M.37 1.65h.2v.7h-.2z" stroke="black" stroke-width=".3" stroke-linecap="round" stroke-linejoin="round"/></pattern><mask id="perforations-mask"><rect x="0" y="0" width="16" height="16" fill="white"/><rect x="0" y="0" width="16" height="16" fill="url(#perforation)"/></mask></defs><g class="perforations"><path d="M0 .5h16v2.5h-16zm0 12.5h16v2.5h-16z" mask="url(#perforations-mask)"/></g><g class="frame-line"><path d="M0 3v10h.85v-10zm15.15 0v10h.85v-10z"/></g><g class="frame" fill="none"><path d="M.85 3h14.3v10h-14.3z"/></g><text class="frame-text" font-family="monospace" x="8" y="8" font-weight="bold" font-size="8" alignment-baseline="central" text-anchor="middle">0</text></svg>

<svg xmlns="http://www.w3.org/2000/svg" version="1.1" height="16" width="16" viewBox="0 0 16 16"><g transform="matrix(.7 0 0 .7 2.4 2.4)"><defs><pattern id="perforation" width=".94" height="2.9" viewBox="0 0 .94 2.5" patternUnits="userSpaceOnUse"><path d="M.37 1.65h.2v.7h-.2z" stroke="#000" stroke-width=".3" stroke-linecap="round" stroke-linejoin="round"/></pattern><mask id="perforations-mask"><path fill="#fff" d="M0 0h16v16H0z"/><path fill="url(#perforation)" d="M0 0h16v16H0z"/></mask></defs><path d="M0 .5h16V3H0zM0 13h16v2.5H0z" mask="url(#perforations-mask)"/><path class="frame-line" d="M0 3v10h.85V3zm15.15 0v10H16V3z"/><path class="frame" d="M.85 3h14.3v10H.85z" fill="none"/></g><text class="frame-text" font-family="monospace" x="8" y="8" font-weight="bold" font-size="5" dominant-baseline="central" text-anchor="middle">0</text></svg>
